!!!COM: Palestrina, Giovanni Perluigi da
!!!OPR: In majoribus duplicibus
!!!OTL: Benedictus
**kern	**kern	**kern	**kern
*Ibass	*Itenor	*Icalto	*Icalto
!Bassus	!Tenor	!Altus 2	!Altus 1
*clefF4	*clefGv2	*clefG2	*clefG2
*k[]	*k[]	*k[]	*k[]
*?:X	*?:X	*?:X	*?:X
*M4/2	*M4/2	*M4/2	*M4/2
=1	=1	=1	=1
0r	0F	1r	0r
.	.	[1f	.
=2	=2	=2	=2
0r	0A	2f]	1r
.	.	4e	.
.	.	4d	.
.	.	2e	[1cc
.	.	2c	.
=3	=3	=3	=3
0r	0G	2e	2cc]
.	.	2d	4b-
.	.	.	4a
.	.	[1g	2b-
.	.	.	2g
=4	=4	=4	=4
0r	0G	2g]	2.b-
.	.	2g	.
.	.	.	4a
.	.	2.b-	4g
.	.	.	4f
.	.	.	2g
.	.	4a	.
=5	=5	=5	=5
0r	0c	4g	2.e
.	.	4f	.
.	.	2g	.
.	.	.	4f
.	.	2e	2g
.	.	2a	[2f
=6	=6	=6	=6
1r	0c	0g	2f]
.	.	.	4e
.	.	.	4d
[1c	.	.	2.e
.	.	.	4f
=7	=7	=7	=7
2c]	0d	1G	1g
4B-	.	.	.
4A	.	.	.
2B-	.	4G	2r
.	.	4A	.
2G	.	4B-	2g
.	.	4c	.
=8	=8	=8	=8
2.B-	0r	4d	2f
.	.	4e	.
.	.	2f	2.b-
4A	.	.	.
4G	.	2e	.
4F	.	.	4a
2G	.	[2d	4g
.	.	.	4f
=9	=9	=9	=9
2E	0r	4d]	2g
.	.	4c	.
2F	.	1c	4f
.	.	.	4e
1G	.	.	1d
.	.	2B	.
=10	=10	=10	=10
1C	0r	1e	2c
.	.	.	2c
1G	.	2d	4B-
.	.	.	4A
.	.	2g	4G
.	.	.	4A
=11	=11	=11	=11
2r	0d	4f	4B-
.	.	4e	4c
2G	.	4d	2B-
.	.	4e	.
4F	.	4f	1A
4E	.	4g	.
4D	.	4a	.
4E	.	4g	.
=12	=12	=12	=12
4F	0c	1a	2r
4G	.	.	.
4A	.	.	2f
4B-	.	.	.
2c	.	2g	2e
2A	.	2c	2f
=13	=13	=13	=13
1.G	0d	4B-	0g
.	.	4A	.
.	.	4G	.
.	.	4A	.
.	.	4B-	.
.	.	4c	.
2B-	.	[2d	.
=14	=14	=14	=14
0A	0e	2d]	0a
.	.	4c#	.
.	.	4B	.
.	.	1c#	.
=15	=15	=15	=15
2r	0f	1d	2r
2B-	.	.	2d
2A	.	1r	2c
2F	.	.	2A
=16	=16	=16	=16
4G	0d	2r	4B-
4A	.	.	4c
4B-	.	2b-	4d
4c	.	.	4e
1d	.	2a	4f
.	.	.	4g
.	.	2f	[2a
=17	=17	=17	=17
1G	[0d	4g	2a]
.	.	4a	.
.	.	4b-	1g
.	.	4g	.
1D	.	2a	.
.	.	2a	2f#
=18	=18	=18	=18
1G	0d]	2b-	1g
.	.	2b-	.
2B-	.	2f	2r
2B-	.	[2b-	2d
=19	=19	=19	=19
1G	0r	4b-]	2e-
.	.	4a	.
.	.	1g	2e-
2.B-	.	.	1d
.	.	2f	.
4A	.	.	.
=20	=20	=20	=20
2G	0g	2e	1r
2F	.	1d	.
2E	.	.	1G
2E	.	2c#	.
=21	=21	=21	=21
0D	0f	1.d	2B-
.	.	.	2B-
.	.	.	2A
.	.	2A	[2d
=22	=22	=22	=22
1r	0e	1A	2d]
.	.	.	4c#
.	.	.	4B
1A	.	2r	2c#
.	.	2a	2c#
=23	=23	=23	=23
2B-	0d	2f	2d
2B-	.	2d	2f
1G	.	2.g	2b-
.	.	.	2b-
.	.	4f	.
=24	=24	=24	=24
2.A	0c	2e	2a
.	.	2.a	2.cc
4G	.	.	.
2F	.	.	.
.	.	4g	4b-
2F	.	[2f	[2a
=25	=25	=25	=25
1C	0c	2f]	2a]
.	.	4e	4g
.	.	4d	4f
2r	.	2e	2g
2F	.	[2f	2a
=26	=26	=26	=26
2B-	0d	2f]	1f
2B-	.	2d	.
2G	.	1B-	2r
[2B-	.	.	2f
=27	=27	=27	=27
4B-]	0G	2r	2b-
4A	.	.	.
4G	.	2d	2b-
4F	.	.	.
2E-	.	2e-	1g
2C	.	2e-	.
=28	=28	=28	=28
1G	0G	1d	2.b-
.	.	.	4a
1r	.	2.b-	2g
.	.	.	2f
.	.	4a	.
=29	=29	=29	=29
0r	0G	2g	2e
.	.	2f	2d
.	.	2e	2.g
.	.	2d	.
.	.	.	4f
=30	=30	=30	=30
0r	0A	2c	2e
.	.	2f	1d
.	.	1e	.
.	.	.	2c#
=31	=31	=31	=31
0r	0B-	2r	1d
.	.	2d	.
.	.	2f	2r
.	.	2f	2d
=32	=32	=32	=32
1D	0A	4d	2f
.	.	4e	.
.	.	4f	2f
.	.	4g	.
2F	.	2.a	2c
2F	.	.	[2f
.	.	4b-	.
=33	=33	=33	=33
0C	0G	1cc	2f]
.	.	.	4e
.	.	.	4d
.	.	2.cc	1e
.	.	4b-	.
=34	=34	=34	=34
1D	[0F	4a	4f
.	.	4g	4e
.	.	2a	4d
.	.	.	4c
1BB-	.	[1b-	2d
.	.	.	2d
=35	=35	=35	=35
[0F	1F_	2b-]	[0c
.	.	4a	.
.	.	4g	.
.	1F_	2.a	.
.	.	4a	.
=36	=36	=36	=36
0F]	0F]	0a	0c]
!! B.Hosanna
*Ibass	*Itenor	*Icalto	*Icant
!Bassus	!Tenor	!Altus	!Cantus
*clefF4	*clefGv2	*clefG2	*clefG2
*k[]	*k[]	*k[]	*k[]
*?:X	*?:X	*?:X	*?:X
*M4/2	*M4/2	*M4/2	*M4/2
=37	=37	=37	=37
0r	1r	0r	0f
.	[1F	.	.
=38	=38	=38	=38
0r	1F]	0c	0a
.	1A	.	.
=39	=39	=39	=39
0C	1c	0e	0g
.	[1c	.	.
=40	=40	=40	=40
0G	2c]	1.d	0g
.	4B	.	.
.	4A	.	.
.	1B	.	.
.	.	[2g	.
=41	=41	=41	=41
0A	1r	2g]	0cc
.	.	4f#	.
.	.	4e	.
.	1c	1f#	.
=42	=42	=42	=42
2.G	1d	0g	0b-
4A	.	.	.
4B-	1G	.	.
4c	.	.	.
[2d	.	.	.
=43	=43	=43	=43
2d]	1.A	1.e	0a
4c#	.	.	.
4B	.	.	.
2c#	.	.	.
2d	2d	2f	.
=44	=44	=44	=44
2B	2G	2.g	0g
1c	4c	.	.
.	4d	4f	.
.	4e	2e	.
.	4f	.	.
2B-	[2g	2d	.
=45	=45	=45	=45
1A	2g]	1c	0a
.	4f	.	.
.	4e	.	.
1D	1f#	[1d	.
=46	=46	=46	=46
1.G	1g	1d]	1.b-
.	2G	[1g	.
2F	2A	.	2a
=47	=47	=47	=47
2E-	1B-	2g]	[0g
2D	.	2f	.
2C	2c	2e-	.
2BB	2d	2d	.
=48	=48	=48	=48
0C	2.e-	2.c	0g]
.	4d	4d	.
.	1c	1e-	.
=49	=49	=49	=49
0G	0B	0d	0g
==	==	==	==
*-	*-	*-	*-
!!!CDT: 1525/^1526/-1594/2/2
!!!OCY: Italia
!!!AGN: Mass (Paraphrase)
!!!AST: renaissance, vocal
!!!ASW: Gregorian Mass
!!!PWK: Masses, Book 7
!!!RNB: Cadence finals: E,C,G,D,F
!!!YOR: Le Opere Complete, v. 23, p. 149
!!!YOO: Rome, Italy: Fratelli Scalera
!!!END: 1992//
!!!EED: John Miller
!!!YEC: Copyright 2000, John Miller
!!!YEN: United States of America
!!!YEM: Rights to all derivative electronic formats reserved.
!!!YEM: Refer to licensing agreement for further details.
!!!YEM: This file must be accompanied by the licensing agreement.
!!!YEM: A copy of the licensing agreement may be found at http://www.music-cog.ohio-state.edu/HumdrumDatabases/Palestrina/license.txt
!!!EMD: converted to Humdrum by Bret Aarden
